img/house-bold.svg

<svg width="32" height="32" viewBox="0 0 32 32" fill="none" xmlns="http://www.w3.org/2000/svg">
<path d="M29.3327 30.3333H2.66602C2.11935 30.3333 1.66602 29.88 1.66602 29.3333C1.66602 28.7867 2.11935 28.3333 2.66602 28.3333H29.3327C29.8794 28.3333 30.3327 28.7867 30.3327 29.3333C30.3327 29.88 29.8794 30.3333 29.3327 30.3333Z" fill="#191A23"/>
<path opacity="0.4" d="M28.0003 13.3067V29.3334H3.93359L4.00026 13.2933C4.00026 12.48 4.37359 11.7067 5.02693 11.2L14.3603 3.94671C15.3203 3.18671 16.6803 3.18671 17.6403 3.94671L19.4269 5.33335L25.3336 9.92002L26.9736 11.2C27.6269 11.7067 28.0003 12.48 28.0003 13.3067Z" fill="#191A23"/>
<path d="M17.3327 22.6667H14.666C13.5593 22.6667 12.666 23.56 12.666 24.6667V29.3333H19.3327V24.6667C19.3327 23.56 18.4393 22.6667 17.3327 22.6667Z" fill="#191A23"/>
<path d="M12.666 18.3333H9.99935C9.26602 18.3333 8.66602 17.7333 8.66602 17V15C8.66602 14.2667 9.26602 13.6667 9.99935 13.6667H12.666C13.3993 13.6667 13.9993 14.2667 13.9993 15V17C13.9993 17.7333 13.3993 18.3333 12.666 18.3333Z" fill="#191A23"/>
<path d="M22 18.3333H19.3333C18.6 18.3333 18 17.7333 18 17V15C18 14.2667 18.6 13.6667 19.3333 13.6667H22C22.7333 13.6667 23.3333 14.2667 23.3333 15V17C23.3333 17.7333 22.7333 18.3333 22 18.3333Z" fill="#191A23"/>
<path d="M25.3324 9.92001L19.4258 5.33334H23.9724C24.7058 5.33334 25.3058 5.92 25.3058 6.65333L25.3324 9.92001Z" fill="#191A23"/>
</svg>

<svg xmlns="http://www.w3.org/2000/svg" width="32" height="32" fill="none"><path fill="#191A23" d="M29.333 30.333H2.666c-.547 0-1-.453-1-1s.453-1 1-1h26.667c.546 0 1 .454 1 1 0 .547-.454 1-1 1"/><path fill="#191A23" d="M28 13.307v16.026H3.934L4 13.293c0-.813.374-1.586 1.027-2.093l9.333-7.253c.96-.76 2.32-.76 3.28 0l1.787 1.386 5.907 4.587 1.64 1.28A2.65 2.65 0 0 1 28 13.307" opacity=".4"/><path fill="#191A23" d="M17.333 22.667h-2.667c-1.107 0-2 .893-2 2v4.666h6.667v-4.666c0-1.107-.894-2-2-2M12.666 18.333H9.999c-.733 0-1.333-.6-1.333-1.333v-2c0-.733.6-1.333 1.333-1.333h2.667c.733 0 1.333.6 1.333 1.333v2c0 .733-.6 1.333-1.333 1.333M22 18.333h-2.667C18.6 18.333 18 17.733 18 17v-2c0-.733.6-1.333 1.333-1.333H22c.733 0 1.333.6 1.333 1.333v2c0 .733-.6 1.333-1.333 1.333M25.332 9.92l-5.906-4.587h4.546c.734 0 1.334.587 1.334 1.32z"/></svg>
